X:1
T:Edgecumbe, 77.77.77
T:Edgecumbe, 77.77.77
T:Olinthus Roberts Barnicott (1842-1908)
T:Public Domain Courtesy of the Cyber Hymnal™
C:Olinthus Roberts Barnicott (1842-1908)
Z:Public Domain
Z:Courtesy of the Cyber Hymnal™
%%score ( 1 2 ) ( 3 4 )
L:1/8
Q:1/4=135
M:3/2
K:C
V:1 treble 
V:2 treble 
V:3 bass 
V:4 bass 
V:1
 [EG]2 [EG]2 | [EG]6 [Ec]2 [FB]2 [FA]2 | [EG]8 [EG]2 [EG]2 | [DG]6 [DG]2 [DG]2 [D^F]2 | %4
 [DG]8 [FG]2 [FG]2 | [EG]6 [Ec]2 [FB]2 [FA]2 | [EG]8 [EG]2 [EG]2 | [Gd]6 [Ad]2 [Gd]2 [^Fd]2 | %8
 G8 [FG]2 [FG]2 | [EG]6 [CE]2 [CF]2 [EG]2 | [FA]8 [Fc]2 [Fc]2 | G6 [Ge]2 [Fe]2 [FB]2 | [Ec]8 |] %13
V:2
 x4 | x12 | x12 | x12 | x12 | x12 | x12 | x12 | G8 x4 | x12 | x12 | G6 x6 | x8 |] %13
V:3
 [C,C]2 [C,C]2 | [C,C]6 [C,G,]2 [C,A,]2 [C,A,]2 | [C,C]8 C2 C2 | [B,D]6 [B,D]2 [A,C]2 [A,C]2 | %4
 [G,B,]8 [G,B,]2 [G,B,]2 | [C,C]6 [C,G,]2 [C,A,]2 [C,A,]2 | [C,C]8 [C,C]2 [C,C]2 | %7
 [C,D]6 [C,A,]2 [D,A,]2 [D,A,]2 | [G,B,]8 [G,B,]2 [G,B,]2 | C6 [_B,C]2 [A,C]2 [G,C]2 | %10
 [F,C]8 [A,C]2 [A,C]2 | [B,D]6 [G,C]2 [G,B,]2 [G,B,]2 | [C,C]8 |] %13
V:4
 x4 | x12 | x8 C2 C2 | x12 | x12 | x12 | x12 | x12 | x12 | C6 x6 | x12 | x12 | x8 |] %13

